X:51
T:Richard Dwyer's Reel
S:Bernie Waugh
R:Reel
M:4/4
L:1/8
K:A Dorian.
|:\
"Am"~A2EA cdeg|"Em"dABE ADGF|"Am"EAcA "G"(3Bcd gf|"F"ea2f "D"a2ag|
"Am"eaed cA~A2|"G"Bgdc "Em"BdcB|"Am"AEcE dEcd|"Em"ecBG "Am"EAA2:|
|:\
"Am"~a2ea c'aea|"G"~g2dg bagb|"F"aged cded|"Em"cABG "Am"DAA2|
"Am"~a2ea eaea|"G"~g2ge dBGB|"D"A2(3Bcd eaaf|"Em"gedg "Am"eA A2:|

